X: 10714
T: Dowser's Favourite
R: reel
M: 4/4
K: Gmajor
Bc|dgeB dBAB|G2BG ED D2|D2GB cBAG|FGAB cABc|
dgeB dBAB|G2BG ED D2|ED D2 GBdB|cAFA G2:|
Bc|dB B2 gdBc|dBcd gdBd|D2GB cBAG|FGAB cABc|
dB B2 gdBc|dBcd gdBd|GDGB GBdB|cAFA G2:|

